X:1
T:Game of Thrones
T:Game of Thrones Theme
T:Brass Quartet
T:Music by Ramin Djawadi Arr. Roee Cohen
T:©Roee Cohen 2019
T:©Roee Cohen 2019
T:©Roee Cohen 2019
Z:©Roee Cohen 2019
%%score 1 2 3 4
L:1/8
Q:1/4=170
M:3/4
K:Bb
V:1 treble transpose=-2 nm="B♭ Trumpet" snm="B♭ Tpt."
V:2 treble transpose=-2 nm="B♭ Trumpet" snm="B♭ Tpt."
V:3 bass nm="Trombone" snm="Tbn."
V:4 bass nm="Trombone" snm="Tbn."
V:1
[K:Bb]!mf! A2 D2 FG | A2 D2 FG | A2 D2 FG | A2 D2 FG | A2 D2 ^FG | A2 D2 ^FG | A2 D2 ^FG | %7
 A2 D2 ^FG |"^A" z6 | z6 | z6 | z6 | z6 | z6 | z6 | z6 |!mp! C6- | C6- | C6- | C6 | G,6- | G,6- | %22
 G,6- | G,6 |"^B" A6 | D6 | FG A4 | D4 FG | =E6 |!mp! (=e2 A2 cd | =e2 A2 cd | =e2 A2 cd) | (g6 | %33
 c6 | f=e g4 | c4 f=e | d6- | d6) | z6 | z6 |!mf!"^C" (a6 | d6 | fg a4 | d4 fg | =e6- | e6) | %46
 (=e2 A2 cd | =e2 A2 cd) | (g6 | c6) | =e3 f3 | =e3 c3 | d6- | d6 | (d2 A2 =Bc | d2 A2 =Bc) | %56
!f!"^D" D6- | D6 | C6- | C6 | d6- | d6 | a6- | a6 | F2 C2 D=E | F2 C2 D=E | F2 C2 D=E | G2 D2 =EF | %68
 D2 A,2 =B,C | D2 A,2 =B,C | D2 A,2 =B,C | D2 A,2 =B,C |"^E" d'6- | d'6 | c'6- | c'6 | d6- | d6 | %78
 a6- | a6 | B6- | B6 | f6 | =e6 | d6- | d6 | z6 | d'2 a2 bc' |!mf! z4 Bc | d2 A2 Bc | d2 A2 Bc | %91
 d6 |] %92
V:2
[K:Bb] z6 | z6 | z6 | z6 | z6 | z6 |!mp! d6- | d6 |!mp! D6- | D6- | D6- | D6 |!mf! (=E2 A,2 CD | %13
 =E2 A,2 CD | =E2 A,2 CD | =E2 A,2 CD) | z6 | z6 | z6 | z6 | z6 | z6 | z6 | z6 |!mp! D6- | D6- | %26
 D6- | D6 |!mf! (=E2 A,2 CD | =E2 A,2 CD | =E2 A,2 CD | =E2 A,2 CD) |!mp! C6- | C6- | C6- | C6 | %36
 D6- |!p! D6- | D6- | D6 |!mf!!mf! (A6 | D6 | FG A4 | D4 FG) | (=E2 A,2 CD | =E2 A,2 CD | %46
 =E2 A,2 CD | =E2 A,2 CD) |!mf!!mp! C6- | C6- | C6- | C6 |!mf! (D2 A,2 =B,C | D2 A,2 =B,C | %54
 D2 A,2 =B,C | D2 A,2 =B,C) |!mf! d2 F2 Bc | d2 F2 Bc | c2 F2 AB | c2 F2 AB | A2 D2 FG | A2 D2 FG | %62
 A2 C2 =EF | A2 C2 =EF | B,6- | B,6 | C6 | D6 | A6- | A6- | A6 | z6 | z6 | D6 | F6- | F6 | G6- | %77
 G6 | A6- | A6 | B,6- | B,6 | F6 | =E6 | D6- | D6- |!f! D6- | D6 | z6 | z6 | z6 | z6 |] %92
V:3
 z6 | z6 | z6 | z6 |!mp! C,6- | C,6- | C,6- | C,6 |!mf! G,6 | C,6 | E,F, G,4 | C,4 E,F, | %12
!mp! D,6- | D,6 | z6 | z6 |!mf! F,6 | B,,6 | E,D, F,4 | B,,4 E,D, |!mp! C,6- | C,6- | C,6- | C,6 | %24
!mf! G,6 | C,6 | E,F, G,4 | C,4 E,F, |!mf! G,,6- | G,,6- | G,,6- | G,,6 |!mp! B,,6 | F,6 | B,,6 | %35
 F,6 |!mp! C,6- | C,6- | C,6- | C,6 |!mp! C,6- | C,6- | C,6- | C,6 | D,6- | D,6- | D,6- | D,6 | %48
 B,,6 | B,,6 | B,,6 | B,,6 | C,,6- | C,,6- | C,,6- | C,,6 | _A,2 z2 A,2 | _A,2 z2 A,2 | %58
 E,2 z2 E,2 | E,2 z2 E,2 | C,2 z2 C,2 | C,2 z2 C,2 | G,2 z2 G,2 | G,2 z2 C,2 | _A,2 z2 A,2 | %65
 _A,2 z2 A,2 | E,2 z2 E,2 | F,2 z2 F,2 | C,2 z2 C,2 | C,2 z2 C,2 | C,2 z2 C,2 | C,2 z2 C,2 | %72
 _A,,6- | A,,6 | E,,6- | E,,6 | F,,6- | F,,6 | C,,6- | C,,6 | E,2 B,2 C,2 | E,2 B,2 C,2 | %82
 E,2 B,2 C,2 | E,2 B,2 G2 |!f! C2 G,2 _A,B, | C2 G,2 _A,B, | C2 G,2 _A,B, | C2 G,2 _A,B, | %88
!mp! C6- | C6- | C6 | z6 |] %92
V:4
!mp! C,,6- | C,,6- | C,,6- | C,,6 | C,,6- | C,,6- | C,,6- | C,,6 |!mp! C,,6 | C,,6 | C,,6 | C,,6 | %12
 G,,6- | G,,6- | G,,6- | G,,6 | B,,6 | F,6 | B,,6 | F,6 |!mf! C,2 F,,2 _A,,B,, | C,2 F,,2 _A,,B,, | %22
 C,2 F,,2 _A,,B,, | C,2 F,,2 _A,,B,, |!mf! C,,6 | C,,6 | C,,6 | C,,6 |!mf! D,6- | D,6 | %30
 D2 G,2 B,C | D2 G,2 B,C | F,6 | B,,6 | E,D, F,4 | B,,4 E,D, |!f! C,2 G,,2 A,,B,, | %37
 C,2 G,,2 A,,B,, | C,2 G,,2 A,,B,, | C,2 G,,2 A,,B,, |!mp!!mf! C,,6- | C,,6- | C,,6- | C,,6 | %44
 G,,6- | G,,6- | G,,6- | G,,6 |!mf! (F6 | B,6) | D3 E3 | D3 B,3 |!mp! C,6- | C,6- | C,6- | C,6 | %56
!mf! _A,,6- | A,,6 | E,,6- | E,,6 | C,,6- | C,,6 | C,,6- | C,,6 | _A,,6- | A,,6 | E,,6 | F,,6 | %68
 C,,6- | C,,6- | C,,6- | C,,6 | z6 | C2 E2 _A,B, | B,2 E2 G,_A, | B,2 E2 G,_A, | G,2 C2 E,F, | %77
 G,2 C2 E,F, | G,2 B,2 D,E, | G,2 B,2 D,E, | _A,,,6- | A,,,6 | E,,6 | D,,6 | C,,6- | C,,6- | %86
 C,,6- | C,,6 | z6 | z6 | z6 | z6 |] %92

